camera-wireless.svg

<svg fill="currentColor" viewBox="0 0 24 24"><path d="M12 10.8a3.2 3.2 0 0 1 3.2 3.2 3.2 3.2 0 0 1-3.2 3.2A3.2 3.2 0 0 1 8.8 14a3.2 3.2 0 0 1 3.2-3.2m4-7.47V2a6 6 0 0 1 6 6h-1.33c0-2.58-2.09-4.67-4.67-4.67M16 6V4.67c1.84 0 3.33 1.49 3.33 3.33H18c0-1.11-.89-2-2-2m1 3h5v11a2 2 0 0 1-2 2H4a2 2 0 0 1-2-2V8a2 2 0 0 1 2-2h3.17L9 4h6v3c1.11 0 2 .89 2 2m-5 10a5 5 0 0 0 5-5 5 5 0 0 0-5-5 5 5 0 0 0-5 5 5 5 0 0 0 5 5"/></svg>

<svg  viewBox="0 0 24 24" fill="currentColor"><path  d="M12,10.8A3.2,3.2 0 0,1 15.2,14A3.2,3.2 0 0,1 12,17.2A3.2,3.2 0 0,1 8.8,14A3.2,3.2 0 0,1 12,10.8M16,3.33V2A6,6 0 0,1 22,8H20.67C20.67,5.42 18.58,3.33 16,3.33M16,6V4.67C17.84,4.67 19.33,6.16 19.33,8H18C18,6.89 17.11,6 16,6M17,9H22V20A2,2 0 0,1 20,22H4A2,2 0 0,1 2,20V8A2,2 0 0,1 4,6H7.17L9,4H15V7C16.11,7 17,7.89 17,9M12,19A5,5 0 0,0 17,14A5,5 0 0,0 12,9A5,5 0 0,0 7,14A5,5 0 0,0 12,19Z"/></svg>
